packages/elvis-assets-icons/icons/svg/src/calendar_clock-color.svg

<svg width="24" height="24" viewBox="0 0 24 24" fill="none" xmlns="http://www.w3.org/2000/svg">
<g clip-path="url(#clip0)">
<path d="M2.25 18.0207C1.009 18.0207 0 17.0105 0 15.7681V3.75431C0 2.51188 1.009 1.50172 2.25 1.50172H4.5V0.750862C4.5 0.336386 4.836 0 5.25 0C5.664 0 6 0.336386 6 0.750862V1.50172H12V0.750862C12 0.336386 12.336 0 12.75 0C13.164 0 13.5 0.336386 13.5 0.750862V1.50172H15.75C16.991 1.50172 18 2.51188 18 3.75431V8.25948C18 8.67396 17.664 9.01035 17.25 9.01035C16.836 9.01035 16.5 8.67396 16.5 8.25948V7.50862H1.5V15.7681C1.5 16.1826 1.836 16.519 2.25 16.519H8.25C8.664 16.519 9 16.8554 9 17.2698C9 17.6843 8.664 18.0207 8.25 18.0207H2.25ZM16.5 6.0069V3.75431C16.5 3.33983 16.164 3.00345 15.75 3.00345H13.5V3.75431C13.5 4.16879 13.164 4.50517 12.75 4.50517C12.336 4.50517 12 4.16879 12 3.75431V3.00345H6V3.75431C6 4.16879 5.664 4.50517 5.25 4.50517C4.836 4.50517 4.5 4.16879 4.5 3.75431V3.00345H2.25C1.836 3.00345 1.5 3.33983 1.5 3.75431V6.0069H16.5Z" fill="black"/>
<path d="M17.25 24.0276C13.528 24.0276 10.5 20.9961 10.5 17.2698C10.5 13.5436 13.528 10.5121 17.25 10.5121C20.972 10.5121 24 13.5436 24 17.2698C24 20.9961 20.972 24.0276 17.25 24.0276ZM17.25 12.0138C14.355 12.0138 12 14.3715 12 17.2698C12 20.1682 14.355 22.5259 17.25 22.5259C20.145 22.5259 22.5 20.1682 22.5 17.2698C22.5 14.3715 20.145 12.0138 17.25 12.0138Z" fill="black"/>
<path d="M17.25 18.0207C16.836 18.0207 16.5 17.6843 16.5 17.2698V14.6158C16.5 14.2013 16.836 13.8649 17.25 13.8649C17.664 13.8649 18 14.2023 18 14.6158V16.519H19.902C20.316 16.519 20.652 16.8554 20.652 17.2698C20.652 17.6843 20.316 18.0207 19.902 18.0207H17.25Z" fill="black"/>
<path d="M3 14.25C3 13.8358 3.33579 13.5 3.75 13.5H7.25C7.66421 13.5 8 13.8358 8 14.25C8 14.6642 7.66421 15 7.25 15H3.75C3.33579 15 3 14.6642 3 14.25Z" fill="#29D305"/>
</g>
<defs>
<clipPath id="clip0">
<path d="M0 0H24V24H0V0Z" fill="white"/>
</clipPath>
</defs>
</svg>

<svg width="24" height="24" fill="none" xmlns="http://www.w3.org/2000/svg"><g clip-path="url(#clip0)"><path d="M2.25 18.02A2.253 2.253 0 010 15.769V3.754a2.253 2.253 0 012.25-2.252H4.5V.75a.75.75 0 111.5 0v.75h6v-.75a.75.75 0 111.5 0v.75h2.25c1.241 0 2.25 1.01 2.25 2.253V8.26a.75.75 0 11-1.5 0v-.75h-15v8.26c0 .414.336.75.75.75h6a.75.75 0 010 1.502h-6zM16.5 6.008V3.754a.75.75 0 00-.75-.75H13.5v.75a.75.75 0 11-1.5 0v-.75H6v.75a.75.75 0 11-1.5 0v-.75H2.25a.75.75 0 00-.75.75v2.253h15z" fill="#000"/><path d="M17.25 24.028c-3.722 0-6.75-3.032-6.75-6.758s3.028-6.758 6.75-6.758S24 13.544 24 17.27s-3.028 6.758-6.75 6.758zm0-12.014A5.259 5.259 0 0012 17.27a5.259 5.259 0 005.25 5.256 5.259 5.259 0 005.25-5.256 5.259 5.259 0 00-5.25-5.256z" fill="#000"/><path d="M17.25 18.02a.75.75 0 01-.75-.75v-2.654a.75.75 0 111.5 0v1.903h1.902a.75.75 0 010 1.502H17.25z" fill="#000"/><path d="M3 14.25a.75.75 0 01.75-.75h3.5a.75.75 0 010 1.5h-3.5a.75.75 0 01-.75-.75z" fill="#29D305"/></g><defs><clipPath id="clip0"><path d="M0 0h24v24H0V0z" fill="#fff"/></clipPath></defs></svg>
